X:775
T: Mrs.Lawrie's
S: B.Breathnach: "Ceol Rince na hEireann" II/221 (gan ainm)
Z: B.Black
L: 1/8
M: 4/4
R: reel
K: G
GE|DGBG A2 (3Bcd|eaag gedB|GGGB AEGE|DGBG AGEG|
DGBG A2 (3Bcd|eaag gedB|GABd gedB|GABG A2 :|
(3Bcd|ea a2 bg g2|agab g2 ag|edeg g2 gb|agab gedg|
ea a2 bg g2 agab g2 ag|edeg gedB|GABG A2 :|

